frontend/public/assets/material-icons/folder-plugin-open.svg

<svg xmlns="http://www.w3.org/2000/svg" viewBox="0 0 32 32">
  <path d="M28.96692,12H9.44152a2,2,0,0,0-1.89737,1.36754L4,24V10H28a2,2,0,0,0-2-2H15.1241a2,2,0,0,1-1.28038-.46357L12.5563,6.46357A2,2,0,0,0,11.27592,6H4A2,2,0,0,0,2,8V24a2,2,0,0,0,2,2H26l4.80523-11.21213A2,2,0,0,0,28.96692,12Z" style="fill: #0288d1"/>
  <path d="M30.10706,20H32V16a2,2,0,0,0-2-2H26V12a2,2,0,0,0-4,0v2H18a2,2,0,0,0-2,2v4H14a2,2,0,0,0,0,4h2v4a2,2,0,0,0,2,2h4V28.10681a2.07435,2.07435,0,0,1,1.66418-2.07947A2.00134,2.00134,0,0,1,26,28v2h4a2,2,0,0,0,2-2V24H30a2.00137,2.00137,0,0,1-1.9726-2.33594A2.07445,2.07445,0,0,1,30.10706,20Z" style="fill: #b3e5fc;fill-rule: evenodd"/>
</svg>

<svg xmlns="http://www.w3.org/2000/svg" viewBox="0 0 32 32"><path fill="#0288d1" d="M28.967 12H9.442a2 2 0 0 0-1.898 1.368L4 24V10h24a2 2 0 0 0-2-2H15.124a2 2 0 0 1-1.28-.464l-1.288-1.072A2 2 0 0 0 11.276 6H4a2 2 0 0 0-2 2v16a2 2 0 0 0 2 2h22l4.805-11.212A2 2 0 0 0 28.967 12"/><path fill="#b3e5fc" d="M30.107 20H32v-4a2 2 0 0 0-2-2h-4v-2a2 2 0 0 0-4 0v2h-4a2 2 0 0 0-2 2v4h-2a2 2 0 0 0 0 4h2v4a2 2 0 0 0 2 2h4v-1.893a2.074 2.074 0 0 1 1.664-2.08A2 2 0 0 1 26 28v2h4a2 2 0 0 0 2-2v-4h-2a2 2 0 0 1-1.973-2.336A2.074 2.074 0 0 1 30.107 20"/></svg>
